icons/solid/play-circle.svg

<svg width="24" height="24" viewBox="0 0 24 24" fill="none" xmlns="http://www.w3.org/2000/svg">
<path fill-rule="evenodd" clip-rule="evenodd" d="M2 12C2 6.47715 6.47715 2 12 2C17.5228 2 22 6.47715 22 12C22 17.5228 17.5228 22 12 22C6.47715 22 2 17.5228 2 12ZM9.5 9.13504C9.5 7.86328 10.9833 7.16855 11.9603 7.98271L15.3982 10.8477C16.1179 11.4474 16.1179 12.5526 15.3982 13.1523L11.9603 16.0173C10.9833 16.8314 9.5 16.1367 9.5 14.865V9.13504Z" fill="currentColor"/>
</svg>

<svg width="24" height="24" fill="none" xmlns="http://www.w3.org/2000/svg"><path fill-rule="evenodd" clip-rule="evenodd" d="M2 12C2 6.477 6.477 2 12 2s10 4.477 10 10-4.477 10-10 10S2 17.523 2 12zm7.5-2.865c0-1.272 1.483-1.966 2.46-1.152l3.438 2.865a1.5 1.5 0 010 2.304l-3.438 2.865c-.977.814-2.46.12-2.46-1.152v-5.73z" fill="currentColor"/></svg>
